X:0869
T:A Jig.
M:6/8
L:1/8
Q:3/8=120
I: :| ||
Z:Jack Campin * www.campin.me.uk * 2009
K:A Dorian
A2A ABd|e2e     e2f      | gfg        efg |dBA     GAB|\
A2A ABd|e2e     efg      |(g/f/e/f/g) dBG |A3-     A3:|
aea aea|a>ba/g/ b>d'c'/a/| gfg        efg |dBA     GAB|\
aea aea|a>ba/g/ b>c'b/a/ | geg        dBG |A3-     A3 |
aea aea|a>ba/g/ b>c'b/a/ | gfg        efg |d>cB/A/ GAB|\
A2A ABd|e2e     efg      |(g/f/e/f/g) dB^G|A3      A3|]
<end>
<start>
